src/assets/images/connectors/frame.svg

<svg width="100" height="100" viewBox="0 0 100 100" fill="none" xmlns="http://www.w3.org/2000/svg">
<path d="M94.6096 49.4278V11.502C94.6087 10.7043 94.4512 9.91452 94.1461 9.17783C93.841 8.44115 93.3943 7.77196 92.8314 7.20848C92.2685 6.64501 91.6005 6.19827 90.8655 5.89378C90.1305 5.58929 89.343 5.43302 88.5478 5.43388H50.6127C50.2324 5.43257 49.8675 5.28242 49.5959 5.01539L45.0332 0.438131C44.8964 0.298427 44.733 0.187674 44.5528 0.112423C44.3725 0.0371713 44.1791 -0.0010492 43.9838 2.19049e-05H6.06831C5.27312 -0.00169736 4.48538 0.153727 3.75007 0.45742C3.01475 0.761114 2.34626 1.20713 1.78277 1.77C1.21927 2.33287 0.771807 3.00158 0.46592 3.73793C0.160033 4.47429 0.00171463 5.26388 4.54269e-06 6.06162V43.9874C-0.000473438 44.1762 0.036773 44.3632 0.109543 44.5373C0.182312 44.7113 0.289128 44.869 0.423678 45.001L4.98632 49.5782C5.12087 49.7102 5.22768 49.8679 5.30045 50.042C5.37322 50.2161 5.41047 50.403 5.40999 50.5918V88.5176C5.41085 89.3153 5.56832 90.1051 5.87341 90.8418C6.17851 91.5785 6.62526 92.2477 7.18815 92.8111C7.75104 93.3746 8.41904 93.8214 9.15403 94.1258C9.88902 94.4303 10.6766 94.5866 11.4718 94.5857H49.4069C49.7872 94.5871 50.152 94.7372 50.4237 95.0042L54.9863 99.5815C55.258 99.8485 55.6228 99.9987 56.0031 100H93.9317C94.7269 100.002 95.5146 99.8463 96.2499 99.5426C96.9852 99.2389 97.6537 98.7929 98.2172 98.23C98.7807 97.6671 99.2282 96.9984 99.5341 96.2621C99.84 95.5257 99.9983 94.7361 100 93.9384V56.0126C100 55.8238 99.9632 55.6368 99.8905 55.4627C99.8177 55.2887 99.7109 55.131 99.5763 54.999L95.0137 50.4218C94.7544 50.1563 94.6093 49.7995 94.6096 49.4278ZM73.5563 74.6354H26.4959C26.21 74.6303 25.9374 74.5132 25.7365 74.3092C25.5355 74.1051 25.4221 73.8303 25.4204 73.5434V26.5023C25.4221 26.2132 25.5374 25.9365 25.7411 25.7321C25.9449 25.5276 26.2208 25.412 26.5089 25.4103H73.5563C73.8444 25.412 74.1203 25.5276 74.3241 25.7321C74.5278 25.9365 74.6431 26.2132 74.6448 26.5023V73.5434C74.6431 73.8325 74.5278 74.1093 74.3241 74.3137C74.1203 74.5181 73.8444 74.6337 73.5563 74.6354Z" fill="black"/>
</svg>

<svg xmlns="http://www.w3.org/2000/svg" width="100" height="100" fill="none"><path fill="#000" d="M94.61 49.428V11.502a6.1 6.1 0 0 0-1.779-4.294 6.05 6.05 0 0 0-4.283-1.774H50.613a1.46 1.46 0 0 1-1.017-.419L45.033.438A1.46 1.46 0 0 0 43.983 0H6.069a6.04 6.04 0 0 0-4.285 1.77A6.08 6.08 0 0 0 0 6.062v37.925a1.42 1.42 0 0 0 .424 1.014l4.562 4.577a1.41 1.41 0 0 1 .424 1.014v37.926a6.1 6.1 0 0 0 1.778 4.293 6.05 6.05 0 0 0 4.284 1.775h37.935c.38.001.745.151 1.017.418l4.562 4.578c.272.267.637.417 1.017.418h37.929a6.03 6.03 0 0 0 4.285-1.77A6.08 6.08 0 0 0 100 93.938V56.013a1.43 1.43 0 0 0-.424-1.014l-4.562-4.577a1.42 1.42 0 0 1-.404-.994M73.556 74.635h-47.06a1.093 1.093 0 0 1-1.076-1.092v-47.04a1.1 1.1 0 0 1 1.089-1.093h47.047a1.093 1.093 0 0 1 1.089 1.092v47.041a1.1 1.1 0 0 1-1.089 1.092"/></svg>
